src/components/icon/download.svg

<svg xmlns="http://www.w3.org/2000/svg" width="16" height="16" viewBox="0 0 24 24">
<path d="M12,24 C5.37282051,24 0,18.6271795 0,12 C0,5.37282051 5.37282051,0 12,0 C18.6271795,0 24,5.37282051 24,12 C24,18.6271795 18.6271795,24 12,24 Z M12,22 C17.52261,22 22,17.52261 22,12 C22,6.47739001 17.52261,2 12,2 C6.47739001,2 2,6.47739001 2,12 C2,17.52261 6.47739001,22 12,22 Z"/>
<path d="M10,14 L10,6 C10,5.44771525 10.4477153,5 11,5 L13,5 C13.5522847,5 14,5.44771525 14,6 L14,14 L17.4177121,14 L12.7130791,18.704633 C12.3192564,19.0984557 11.6807436,19.0984557 11.2869209,18.704633 L6.58228792,14 L10,14 Z"/>
</svg>

<svg xmlns="http://www.w3.org/2000/svg" width="16" height="16" viewBox="0 0 24 24"><path d="M12 24C5.373 24 0 18.627 0 12S5.373 0 12 0s12 5.373 12 12-5.373 12-12 12zm0-2c5.523 0 10-4.477 10-10S17.523 2 12 2 2 6.477 2 12s4.477 10 10 10z"/><path d="M10 14V6a1 1 0 0 1 1-1h2a1 1 0 0 1 1 1v8h3.418l-4.705 4.705a1.008 1.008 0 0 1-1.426 0L6.582 14H10z"/></svg>
